X: 32559
T: Planxty Hewlett
R: waltz
M: 3/4
K: Dmajor
A2|D2 D2 FG|AB c2 A2|d2 f2 fg|fe d3B|
A2 F2 F2|G2 GBAG|AF D2 D2|D4:|z2|
A2 D2 AB|A2 D2 AB|A2 d2 d2|dc BA GF|
G2 G,2 GA|G2 G,2 GA|G2 GA BG|AF D3E|
FE F2 G2|AB c2 A2|fe fg ag|fe d3B|
A2 F2 F2|G3A BG|AF D2 D2|D4||

